X:8
T:Horse and Away to Newmarket. JBi.08
T:Fenwick Oâ€™Bywell,aka. JBi.08
T:Newmarket Races,aka. JBi.08
M:6/8
L:1/8
Q:3/8=80
S:James Biggins MS, Leeds, 1779.
R:.Jig
O:England
A:Yorkshire
N:Bar 5,etc -d>ede/ in ms..Peacockâ€™s Tunes 1800â€³Newmarket
N:Racesâ€..Northumbrian Minstrelsyâ€Fenwick Oâ€™Bywellâ€™s Off to Newmarketâ€
Z:vmp.Nick Barber & Chris Partington
K:F
(f/e/)|f2F AGF|GAG B2d|c2F AGF|FfF ABc|!
â€œ^NBâ€d>ed/e/ fcA|GAG B2d|c2B AGF|FfFA2:|!
|:B/-A/|FBF (A/B/)cA|FfFA2G|GgG (A/B/)cA|GgG ABc|!
â€œ^NBâ€d>ed/e/ fcA|GAG A2f|dcB AGF|FfFA2:|!
|:(B/A/)|F(A/B/)c c(A/B/)c|F(A/B/)c c(A/B/)c|G(B/c/)d d(B/c/)d|\
G(B/c/)d d(B/c/)d|!
F(A/B/)c c(A/B/)c|F(A/B/)c c(A/B/)c|edc cBA|\
GAGA2f|dcB AGF|FfFA2:|!
|:(B/A/)|ffF AAF|ffFB2d|ffF AAF|ffF ABc|!
â€œ^NBâ€d>ed/e/ fcA|GAGA2f|dcB AGF|FfFA2:|

